!!!COM: Igor (Fyodorovich) Stravinsky
!!!OTL: [T381_Str-w17p41h62m1-7]
**kern	**dynam	**kern	**dynam	**kern	**dynam	**kern	**dynam	**kern	**dynam	**kern	**dynam	**kern	**kern	**kern	**kern	**kern	**dynam	**kern	**dynam
*grp:A	*grp:A	*grp:A	*grp:A	*grp:A	*grp:A	*grp:A	*grp:A	*grp:A	*grp:A	*grp:A	*grp:A	*grp:B	*grp:B	*grp:B	*grp:B	*grp:A	*grp:A	*grp:A	*grp:A
*part12	*part12	*part11	*part11	*part10	*part10	*part9	*part9	*part8	*part8	*part7	*part7	*part6	*part5	*part4	*part3	*part2	*part2	*part1	*part1
*staff12	*staff12	*staff11	*staff11	*staff10	*staff10	*staff9	*staff9	*staff8	*staff8	*staff7	*staff7	*staff6	*staff5	*staff4	*staff3	*staff2	*staff2	*staff1	*staff1
*I"Violoncello	*I"Violoncello	*I"Violoncello	*I"Violoncello	*I"Viola	*I"Viola	*I"Viola	*I"Viola	*I"Violin II	*I"Violin II	*I"Violin I	*I"Violin I	*I"Violoncello Solo	*I"Viola Solo	*I"Violin II Solo	*I"Violin I Solo	*I"Flute II	*I"Flute II	*I"Flute I	*I"Flute I
*I'Vc.	*	*I'Vc.	*	*I'Vla.	*	*I'Vla.	*	*I'Vln. II	*	*I'Vln. I	*	*I'Vc.	*I'Vla.	*I'Vln.	*I'Vln.	*I'Fl.	*	*I'Fl.	*
*clefF4	*	*clefF4	*	*clefC3	*	*clefC3	*	*clefG2	*	*clefG2	*	*clefF4	*clefC3	*clefG2	*clefG2	*clefG2	*	*clefG2	*
*k[b-e-]	*	*k[b-e-]	*	*k[b-e-]	*	*k[b-e-]	*	*k[b-e-]	*	*k[b-e-]	*	*k[b-e-]	*k[b-e-]	*k[b-e-]	*k[b-e-]	*k[b-e-]	*	*k[b-e-]	*
*B-:	*	*B-:	*	*B-:	*	*B-:	*	*B-:	*	*B-:	*	*B-:	*B-:	*B-:	*B-:	*B-:	*	*B-:	*
*M3/4	*	*M3/4	*	*M3/4	*	*M3/4	*	*M3/4	*	*M3/4	*	*M3/4	*M3/4	*M3/4	*M3/4	*M3/4	*	*M3/4	*
=1	=1	=1	=1	=1	=1	=1	=1	=1	=1	=1	=1	=1	=1	=1	=1	=1	=1	=1	=1
!	!	!	!	!	!	!	!	!	!	!	!	!LO:TX:a:rj:t=pizz. 	!LO:TX:a:rj:t=pizz. 	!LO:TX:a:rj:t=pizz. 	!LO:TX:a:rj:t=pizz. 	!	!	!	!
!	!LO:DY:t=%s subito sino al Fine	!LO:TX:a:t=div.	!LO:DY:B:t=%s subito sino al Fine	!	!LO:DY:B:t=%s subito sino al Fine	!LO:TX:a:t=div.	!LO:DY:B:t=%s subito sino al Fine	!	!LO:DY:B:t=%s subito sino al Fine	!LO:TX:B:t=p subito sino al Fine	!LO:DY:B:t=%s subito sino al Fine	!LO:TX:i:t=très sonore	!LO:TX:i:t=très sonore	!LO:TX:i:t=très sonore	!LO:TX:i:t=très sonore	!	!LO:DY:t=%s staccatissimo	!	!LO:DY:t=%s staccatissimo
8BB-'L	pyy	8BB-'L	pyy	8F'L	pyy	8E-'L	pyy	8ddL	pyy	8ffL	pyy	4BB-	4E-	4B-	4f	8f`L	ff	8b-`L	ff
8r	.	8B-'J	.	8G'	.	8r	.	8cc	.	8ff	.	.	.	.	.	8g`	.	8ee-`	.
8BB-'J	.	8r'	.	8G'J	.	8E-'J	.	8b-J	.	8ffJ	.	4BB-	4G	4B-	4f	8b-`J	.	8ff`J	.
8B-'L	.	8F'L	.	8F'	.	8B-'L	.	8ccL	.	8ffL	.	.	.	.	.	8ee-`L	.	8gg`L	.
8BB-'J	.	8F'	.	8r	.	8E-'	.	8dd	.	8gg	.	4BB-	4E-	4B-	4f	8ff`	.	8bb-`	.
8r	.	8B-'J	.	8r	.	8G'J	.	8ee-J	.	8aaJ	.	.	.	.	.	8ee-`J	.	8gg`J	.
=2	=2	=2	=2	=2	=2	=2	=2	=2	=2	=2	=2	=2	=2	=2	=2	=2	=2	=2	=2
8BB-'L	.	8BB-'L	.	8G'L	.	8E-'L	.	8ee-L	.	8bb-L	.	4BB-	4G	4B-	4f	8b-`L	.	8ff`L	.
8r	.	8B-'J	.	8F'	.	8r	.	8ee-	.	8bb-	.	.	.	.	.	8g`	.	8ee`-	.
8BB-'J	.	8r'	.	8F'J	.	8E-'J	.	8ee-J	.	8bb-J	.	4BB-	4E-	4B-	4f	8f`J	.	8b`-J	.
8B-'L	.	8G'L	.	8G'	.	8B-'L	.	8ee-L	.	(8bb-L	.	.	.	.	.	8g`L	.	8ee`-L	.
8BB-'J	.	8G'	.	8r	.	8E-'	.	8ee-	.	8gg)	.	4BB-	4G	4B-	4f	8b-`	.	8ff`	.
8r	.	8B-'J	.	8r	.	8F'J	.	8ee-J	.	8gg'J	.	.	.	.	.	8ee-`J	.	8gg`J	.
=3	=3	=3	=3	=3	=3	=3	=3	=3	=3	=3	=3	=3	=3	=3	=3	=3	=3	=3	=3
8BB-'L	.	8BB-'L	.	8F'L	.	8E-'L	.	(8ee-LT	.	(8ggLT	.	4BB-	4E-	4B-	4f	8ff`L	.	8bb`-L	.
8r	.	8B-'J	.	8G'	.	8r	.	8dd)	.	8ff)	.	.	.	.	.	8ee-`	.	8gg`	.
8BB-'J	.	8r'	.	8G'J	.	8E-'J	.	8dd'J	.	8ff'J	.	4BB-	4G	4B-	4f	8b-`J	.	8ff`J	.
8B-'L	.	8F'L	.	8F'	.	8B-'L	.	(8ddLt	.	(8ffLT	.	.	.	.	.	8g`L	.	8ee-`L	.
8BB-'J	.	8F'	.	8r	.	8E-'	.	8cc)	.	8ee-)	.	4BB-	4E-	4B-	4f	8f`	.	8b-`	.
8r	.	8B-'J	.	8r	.	8G'J	.	8b-'J	.	8dd'J	.	.	.	.	.	8g`J	.	8ee-`J	.
=4	=4	=4	=4	=4	=4	=4	=4	=4	=4	=4	=4	=4	=4	=4	=4	=4	=4	=4	=4
8BB-'L	.	8BB-'L	.	8G'L	.	8E-'L	.	(8b-LT	.	(8ddLt	.	4BB-	4G	4B-	4f	8b-`L	.	8ff`L	.
8r	.	8B-'J	.	8F'	.	8r	.	8a)	.	8cc)	.	.	.	.	.	8ee-`	.	8gg`	.
8BB-'J	.	8r'	.	8F'J	.	8E-'J	.	8a'J	.	8cc'J	.	4BB-	4E-	4B-	4f	8ff`J	.	8bb-`J	.
8B-'L	.	8G'L	.	8G'	.	8B-'L	.	(8aL	.	(8ccL	.	.	.	.	.	8ee-`L	.	8gg`L	.
8BB-'J	.	8G'	.	8r	.	8E-'	.	8f)	.	8ff)	.	4BB-	4G	4B-	4f	8b-`	.	8ff`	.
8r	.	8B-'J	.	8r	.	8F'J	.	8f'J	.	8ff'J	.	.	.	.	.	8g`J	.	8ee-`J	.
=5	=5	=5	=5	=5	=5	=5	=5	=5	=5	=5	=5	=5	=5	=5	=5	=5	=5	=5	=5
8BB-'L	.	8BB-'L	.	8F'L	.	8E-'L	.	8gL	.	(8ffLT	.	4BB-	4E-	4B-	4f	8f`L	.	8b-`L	.
8r	.	8B-'J	.	8G'	.	8r	.	8g	.	8ee-)	.	.	.	.	.	8g`	.	8ee-`	.
8BB-'J	.	8r'	.	8G'J	.	8E-'J	.	8gJ	.	8dd'J	.	4BB-	4G	4B-	4f	8b-`J	.	8ff`J	.
8B-'L	.	8F'L	.	8F'	.	8B-'L	.	(8gL	.	8ee-L	.	.	.	.	.	8ee-`L	.	8gg`L	.
8BB-'J	.	8F'	.	8r	.	8E-'	.	8f)	.	8ee-	.	4BB-	4E-	4B-	4f	8ff`	.	8bb-`	.
8r	.	8B-'J	.	8r	.	8G'J	.	8e-'J	.	8ee-J	.	.	.	.	.	8ee-`J	.	8gg`J	.
=6	=6	=6	=6	=6	=6	=6	=6	=6	=6	=6	=6	=6	=6	=6	=6	=6	=6	=6	=6
8BB-'L	.	8BB-'L	.	8G'L	.	8E-'L	.	8fL	.	(8ee-LT	.	4BB-	4G	4B-	4f	8b-`L	.	8ff`L	.
8r	.	8B-'J	.	8F'	.	8r	.	8f	.	8dd)	.	.	.	.	.	8g`	.	8ee-`	.
8BB-'J	.	8r'	.	8F'J	.	8E-'J	.	8fJ	.	8cc'J	.	4BB-	4E-	4B-	4f	8f`J	.	8b-`J	.
8B-'L	.	8G'L	.	8G'	.	8B-'L	.	(8fL	.	8ddL	.	.	.	.	.	8g`L	.	8ee-`L	.
8BB-'J	.	8G'	.	8r	.	8E-'	.	8e-)	.	8dd	.	4BB-	4G	4B-	4f	8b-`	.	8ff`	.
8r	.	8B-'J	.	8r	.	8F'J	.	8d'J	.	8ddJ	.	.	.	.	.	8ee-`J	.	8gg`J	.
=7	=7	=7	=7	=7	=7	=7	=7	=7	=7	=7	=7	=7	=7	=7	=7	=7	=7	=7	=7
8BB-'L	.	8BB-'L	.	8F'L	.	8E-'L	.	8e-L	.	(8ddLt	.	4BB-	4E-	4B-	4f	8ff`L	.	8bb-`L	.
8r	.	8B-'J	.	8G'	.	8r	.	8e-	.	8cc)	.	.	.	.	.	8ee-`	.	8gg`	.
8BB-'J	.	8r'	.	8G'J	.	8E-'J	.	8e-J	.	8b-'J	.	4BB-	4G	4B-	4f	8b-`J	.	8ff`J	.
8B-'L	.	8F'L	.	8F'	.	8B-'L	.	(8e-L	.	(8ccL	.	.	.	.	.	8g`L	.	8ee-`L	.
8BB-'J	.	8F'	.	8r	.	8E-'	.	8d)	.	8dd)	.	4BB-	4E-	4B-	4f	8f`	.	8b-`	.
8r	.	8B-'J	.	8r	.	8G'J	.	8cJ	.	8ee-J	.	.	.	.	.	8g`J	.	8ee-`J	.
=	=	=	=	=	=	=	=	=	=	=	=	=	=	=	=	=	=	=	=
*-	*-	*-	*-	*-	*-	*-	*-	*-	*-	*-	*-	*-	*-	*-	*-	*-	*-	*-	*-
!!!system-decoration: [([(s1,s2)])][(s3,s4,s5,s6)][(s7,s8[(s9,s10)][(s11,s12)])]
